X: 4226
T: SWEET FLORA
R: Jig
%R: jig
B: James Kerr "Merry Melodies" v.4 p.25 #226
Z: 2016 John Chambers <jc:trillian.mit.edu>
M: 6/8
L: 1/8
K: A
|:\
c3 BAB | cAF EFG | A2f ecA | BcA GFE |\
c3 BAB | cAF EFG | A2f ecA | B3  A3 :|
|:\
e3 cde | fgf agf | e3  edc | BcB GFE |\
e3 cde | fgf agf | ecf ecA | B3  A3 :|

%%sep 1 1 500
%%sep 1 1 500

